svg/system/history_anticlockwise_line.svg

<?xml version="1.0" encoding="UTF-8"?>
<svg width="24px" height="24px" viewBox="0 0 24 24" version="1.1" xmlns="http://www.w3.org/2000/svg" xmlns:xlink="http://www.w3.org/1999/xlink">
    <title>history_anticlockwise_line</title>
    <g id="Icon" stroke="none" stroke-width="1" fill="none" fill-rule="evenodd">
        <g id="System" transform="translate(-144.000000, -480.000000)" fill-rule="nonzero">
            <g id="history_anticlockwise_line" transform="translate(144.000000, 480.000000)">
                <path d="M24,0 L24,24 L0,24 L0,0 L24,0 Z M12.5935,23.2578 L12.5819,23.2595 L12.5109,23.295 L12.4919,23.2987 L12.4767,23.295 L12.4057,23.2595 C12.3958,23.2564 12.387,23.259 12.3821,23.2649 L12.378,23.2758 L12.3609,23.7031 L12.3659,23.7235 L12.3769,23.7357 L12.4805,23.8097 L12.4953,23.8136 L12.5071,23.8097 L12.6107,23.7357 L12.6233,23.7197 L12.6267,23.7031 L12.6096,23.2758 C12.6076,23.2657 12.601,23.2593 12.5935,23.2578 Z M12.8584,23.1453 L12.8445,23.1473 L12.6598,23.2397 L12.6499,23.2499 L12.6472,23.2611 L12.6651,23.6906 L12.6699,23.7034 L12.6784,23.7105 L12.8793,23.8032 C12.8914,23.8069 12.9022,23.803 12.9078,23.7952 L12.9118,23.7812 L12.8777,23.1665 C12.8753,23.1546 12.8674,23.147 12.8584,23.1453 Z M12.143,23.1473 C12.1332,23.1424 12.1222,23.1453 12.1156,23.1526 L12.1099,23.1665 L12.0758,23.7812 C12.0751,23.7927 12.0828,23.8019 12.0926,23.8046 L12.1083,23.8032 L12.3092,23.7105 L12.3186,23.7024 L12.3225,23.6906 L12.3404,23.2611 L12.3372,23.2485 L12.3278,23.2397 L12.143,23.1473 Z" id="MingCute"></path>
                <path d="M20.6602,7.0002 C23.4217,11.7831 21.7829,17.899 17,20.6605 C12.8774,23.0406 7.76687,22.1515 4.66498,18.8 C4.28984,18.3947 4.31432,17.762 4.71965,17.3868 C5.12498,17.0117 5.75767,17.0362 6.1328,17.4415 C8.61412,20.1225 12.7039,20.8314 16,18.9284 C19.8263,16.7193 21.1373,11.8265 18.9282,8.0002 C16.719,4.17386 11.8263,2.86286 7.99998,5.072 C5.77371,6.35734 4.39784,8.55192 4.073,10.9176 L5.35433,10.5832 C6.40113,10.31 7.17209,11.5535 6.46192,12.3696 L4.21056,14.9569 C3.64281,15.6094 2.54575,15.3867 2.31855,14.5132 C2.20886,14.0916 2.12783,13.6662 2.07475,13.2397 C1.59346,9.37327 3.41024,5.41249 6.99998,3.33995 C11.7829,0.578527 17.8988,2.21728 20.6602,7.0002 Z M11.9999,6 C12.5522,6 12.9999,6.44772 12.9999,7 L12.9999,11.5858 L15.707,14.2929 C16.0976,14.6834 16.0976,15.3166 15.707,15.7071 C15.3165,16.0976 14.6834,16.0976 14.2928,15.7071 L11.2928,12.7071 C11.1053,12.5196 10.9999,12.2652 10.9999,12 L10.9999,7 C10.9999,6.44772 11.4477,6 11.9999,6 Z" id="形状" fill="#09244B"></path>
            </g>
        </g>
    </g>
</svg>

<svg xmlns="http://www.w3.org/2000/svg" width="24" height="24"><g fill="none" fill-rule="nonzero"><path d="M24 0v24H0V0h24ZM12.594 23.258l-.012.002-.071.035-.02.004-.014-.004-.071-.036c-.01-.003-.019 0-.024.006l-.004.01-.017.428.005.02.01.013.104.074.015.004.012-.004.104-.074.012-.016.004-.017-.017-.427c-.002-.01-.009-.017-.016-.018Zm.264-.113-.014.002-.184.093-.01.01-.003.011.018.43.005.012.008.008.201.092c.012.004.023 0 .029-.008l.004-.014-.034-.614c-.003-.012-.01-.02-.02-.022Zm-.715.002a.023.023 0 0 0-.027.006l-.006.014-.034.614c0 .012.007.02.017.024l.015-.002.201-.093.01-.008.003-.011.018-.43-.003-.012-.01-.01-.184-.092Z"/><path fill="#09244B" d="M20.66 7C23.422 11.783 21.783 17.9 17 20.66c-4.123 2.38-9.233 1.491-12.335-1.86a1 1 0 0 1 1.468-1.358 8 8 0 1 0-2.06-6.524l1.281-.335c1.047-.273 1.818.97 1.108 1.787L4.21 14.957c-.568.652-1.665.43-1.892-.444A10.003 10.003 0 0 1 7 3.34C11.783.579 17.899 2.217 20.66 7ZM12 6a1 1 0 0 1 1 1v4.586l2.707 2.707a1 1 0 1 1-1.414 1.414l-3-3A1 1 0 0 1 11 12V7a1 1 0 0 1 1-1Z"/></g></svg>
